X: 877
T: Gönül Gurbet Ele Varma
C: Hüseyin Kırmızıgül
O: Turkey
F: http://compmusic.upf.edu/node/140
N: tahir--turku--nimsofyan--gonul_gurbet--gaziantep
N: makam= tahir
N: form= turku
N: usul= nimsofyan = 2/4
M: 2/4
L: 1/16
K: C _2/4B ^3/4f  
Q: 1/4=264
%%MIDI tuningsystem comma53
z2fg a2a2  | agba afg2  | gfag gff2  | fegf fee2  | 
w:   |   |   |   | 
ed=fe edd2  | dced dBc2  | cBdc cBB2  | 
w:   |   |   | 
BAcB BAA2  | A2AA A2A2  | A2fg a2a2  | agba a2a2  | 
w:   |   |  *  Gö nül  gur bet_  |  e le  *  *  var ma    | 
agba a2a2  | agba a2a2  | z2gg gg3  | gfag gff2  | 
w:  Gö nül  *  *  gur bet_  |  e le  *  *  var ma    |  Ya  ge li nir   |  ya  ge *  *  lin *  mez    | 
fegf ^2/4fee2  | ed=fe edd2  | dced dBc2  | 
w:  Her  *  gü *  ze *  le   |  me yil  *  *  ver *  me    |  Ya  se *  *  vi *  lir   | 
cBdc cBB2  | BAcB B{B}A3  | A4 f/e/d/c/d2  | \
w:  ya  se *  *  vil *  mez    |  Gel_ ey  *  gel_ *  *  ey   |  ey   SAZ  | 
z2cd d2d2  | 
w:  Her  gü ze le   | 
dced d2d2  | dced d2d2  | dced d2de/f/  | \
w:  me yil  *  *  ver me    |  He ri  gü *  ze le   |  me yil  *  *  ver me   SAZ  | 
g2fg gg3  | 
w:  *  Ya  se vi lir   | 
gfag gff2  | fegf fee2  | ed=fe edd2  | 
w:  ya  se *  *  vil *  mez    |  Gel  *  gü *  lüm  *  gel   |  gel  *  tel *  lim  *  gel    | 
dced dBc2  | cBdc cBB2  | BAcB BA3  | A8  | 
w:  Gel  *  naz *  lım  *  gel    |  Gel_ ey  *  *  gel_ ey   |  gel_ ey  *  *  gel_ ey   |  ey    | 
z2fg a2a2  | agba afg2  | gfag gff2  | fegf fee2  | 
w:   |   |   |   | 
ed=fe edd2  | dced dBc2  | cBdc cBB2  | 
w:   |   |   | 
BAcB BAA2  | A2AA A2A2  | A2fg a2a2  | agba a2a2  | 
w:   |   |  *  Gö nül  gur bet_  |  e le  *  *  var ma    | 
agba a2a2  | agba a2a2  | z2gg gg3  | gfag gff2  | 
w:  Gö nül  *  *  gur bet_  |  e le  *  *  var ma    |  Ya  ge li nir   |  ya  ge *  *  lin *  mez    | 
fegf ^2/4fee2  | ed=fe edd2  | dced dBc2  | 
w:  Her  *  gü *  ze *  le   |  me yil  *  *  ver *  me    |  Ya  se *  *  vi *  lir   | 
cBdc cBB2  | BAcB B{B}A3  | A4 f/e/d/c/d2  | \
w:  ya  se *  *  vil *  mez    |  Gel_ ey  *  gel_ *  *  ey   |  ey   SAZ  | 
z2cd d2d2  | 
w:  Her  gü ze le   | 
dced d2d2  | dced d2d2  | dced d2de/f/  | \
w:  me yil  *  *  ver me    |  He ri  gü *  ze le   |  me yil  *  *  ver me   SAZ  | 
g2fg gg3  | 
w:  *  Ya  se vi lir   | 
gfag gff2  | fegf fee2  | ed=fe edd2  | 
w:  ya  se *  *  vil *  mez    |  Gel  *  gü *  lüm  *  gel   |  gel  *  tel *  lim  *  gel    | 
dced dBc2  | cBdc cBB2  | BAcB BA3  | A8  | 
w:  Gel  *  naz *  lım  *  gel    |  Gel_ ey  *  *  gel_ ey   |  gel_ ey  *  *  gel_ ey   |  ey    | 
|


